src/svg/angle-circled-down.svg

<svg height="1000" width="857.143" xmlns="http://www.w3.org/2000/svg"><path d="M453.654 724.906l253.332 -253.332q10.602 -10.602 10.602 -25.11t-10.602 -25.11l-56.916 -56.916q-10.602 -10.602 -25.11 -10.602t-25.11 10.602l-171.306 171.306 -171.306 -171.306q-10.602 -10.602 -25.11 -10.602t-25.11 10.602l-56.916 56.916q-10.602 10.602 -10.602 25.11t10.602 25.11l253.332 253.332q10.602 10.602 25.11 10.602t25.11 -10.602zm403.434 -224.874q0 116.622 -57.474 215.109t-155.961 155.961 -215.109 57.474 -215.109 -57.474 -155.961 -155.961 -57.474 -215.109 57.474 -215.109 155.961 -155.961 215.109 -57.474 215.109 57.474 155.961 155.961 57.474 215.109z"/></svg>

<svg height="1000" width="857.1" xmlns="http://www.w3.org/2000/svg"><path d="M453.7 724.9L707 471.5q10.6 -10.6 10.6 -25.1T707 421.3l-56.9 -56.9Q639.5 353.8 625 353.8t-25.1 10.6L428.6 535.7 257.3 364.4q-10.6 -10.6 -25.2 -10.6T207 364.4l-56.9 56.9q-10.6 10.6 -10.6 25.1t10.6 25.1l253.4 253.4q10.6 10.6 25.1 10.6t25.1 -10.6zM857.1 500q0 116.6 -57.4 215.1t-156 156 -215.1 57.5T213.4 871.1 57.5 715.1 0 500 57.5 284.9t155.9 -156T428.6 71.4t215.1 57.5 156 156T857.1 500z"/></svg>
